!!!ONB: MCCC : IFS0592_01 : Extracted Monophonic Melody
!!!COM: Schubert, Franz
!!!OPR: Piano Sonata in C minor
!!!OMV: 1
!!!SCT: D.958
!!!ODT: 1828///
**kern
*staff1
*clefG2
*k[b-e-a-]
*E-:
*M3/4
=3
4e
16r
16f
16g
16a-
16b-
16cc
16dd
16ee
=4
4f
4ff
8r
16r
16ff
=5
4gg-
4gg-
8r
16r
16gg-
=6
4gg
4gg
8r
16r
16gg
=7
4aa-
8gg
8ee-
8dd
8cc
=8
4gg
4gg
8r
16r
16gg
=9
4ccc
4ccc
8r
16r
16ccc
=10
4bb
4bb
8r
16r
16ddd
=11
4eee-
4eee-
8r
16r
16eee-
=12
4.aaa-
24ggg
24fff
24eee-
24ddd-
24ccc
24bb-
24aa-
24gg
24ff
=13
24ee-
24dd-
24cc
24b-
24a-
24g
24f
24e-
24d-
24c
24B-
24A-
24G
24F
24E-
24D-
24C
24BB-
=14
2AA-
4r
=15
2.r
=16
4r
8r
16G
16g
16A-
16a-
16B-
16b-
=17
16c
16cc
16d
16dd
16e-
16ee-
16g
16gg
16a-
16aa-
16b-
16bb-
=18
16cc
16ccc
16dd
16ddd
16ee-
16eee-
16aa-
16aaa-
16bb-
16bbb-
16ccc
16cccc
=19
4ggg
16r
16fff
16eee-
16ddd
16ccc
16bb-
16aa-
16gg
=20
16ff
16ee-
16dd
16cc
16b
16a-
16g
16f
16e-
16d
16c
16B
=21
4.c
16d
16c
16B
16c
16B
16c
=22
4e-
4d
8r
16r
16d
=23
4e
16r
16dd-
16cc
16b-
16a-
16g
16f
16e
=24
4g
4f
8r
16r
16f
=25
4g
8f#
16g
16f#
16g
16f#
16g
16g-
=26
4a-
4g
8r
16r
16g
=27
4cc
8a-
8e-
8c
8ee-
=28
4b-
4b-
8r
16r
16g
=29
8a-
8cc
8b-
8a-
8g
8f
=30
4g-
4g
8r
16r
16bb-
=31
4ccc
8aa-
8ee-
8cc
8eee-
=32
4bb-
4bb-
8r
16r
16gg
=33
8aa-
8ccc
8bb-
8aa-
8gg
8ff
=34
8gg
8bb-
8aa-
8gg
8ff
8ee-
=35
8dd
8aa-
8gg
8ff
8ee-
8dd
=36
16ee-
16gg-
16ee-
16cc
16cc
16ee-
16cc
16a
16a
16cc
16a
16e-
=37
16b-
16dd
16b-
16f
16f
16b-
16f
16d
16d
16f
16d
16B-
=38
4b-
4b-
4r
=39
4r
8r
8a-
8g
8f
=40
4e-[
4e-]
4d
=41
8e-
8d
8e-
8f
4g
=42
2a-
4g
=43
8g
8f
8e-
8d
8c
8d
=44
4e-
4b-
4b-
=45
8b-
8b-
8b-
8b-
4b-
=46
4b-
4ee-
4ee-
=47
8ee-
8ee-
8ee-
8ee-
8ee-
8ee-
=48
4ee-
4.a-
8f
=49
8a-
8g-
8dd-
8dd-
8dd-
8dd-
=50
4dd-
4r
4b-
=51
2.b-[
=52
4b-]
4cc
4a-
=53
4.g
8aa-
8gg
8ff
=54
2ee-
4dd
=55
8ee-
8dd
8ee-
8ff
4gg
=56
2aa-
4gg
=57
8gg
8ff
8ee-
8dd
8cc
8dd
=58
2ee-
4dd
=59
8ee-
8dd
8ee-
8ff
4gg
=60
2bb-
4gg
=61
8bb-
8aa-
8gg
8ff
8ee-
8ff
=62
4gg
4.aa-
8ff
=63
8aa-
8gg-
8ff
8ee-
8dd-
8ee-
=64
4ff
2ff
=65
4ff
8gg
8aa-
8gg
8ff
=66
4gg
4ccc
4aa-
=67
4.gg
16a-
16b-
16g-
16b-
16f
16b-
=68
16e-
16b-
16g-
16f
16e-
16b-
16g-
16e-
16d
16b-
16f
16d
=69
16e-
16b-
16d
16b-
16e-
16b-
16f
16b-
16g-
16ee-
16b-
16g-
=70
16a-
16ee-
16b
16b-
16a-
16ee-
16b
16a-
16g-
16ee-
16b-
16g-
=71
16g-
16b-
16f
16b-
16e-
16b-
16d
16b-
16e-
16b-
16f
16dd-
=72
16g-
16dd-
16b-
16a-
16g-
16dd-
16b-
16g-
16f
16dd-
16a-
16f
=73
16g-
16dd-
16f
16dd-
16g-
16dd-
16a-
16dd-
16b-
16gg-
16dd-
16b-
=74
16b
16gg-
16ee-
16dd-
16b
16gg-
16ee-
16b
16b-
16gg-
16dd-
16b-
=75
16b-
16dd-
16a-
16dd-
16g-
16dd-
16f
16dd-
16g-
16dd-
16g
16ee-
=76
16a-
16ee-
16b-
16gg-
16b
16aa-
16ee-
16bb-
16ee-
16bb
16gg-
16eee-
=77
16aa-
16aaa-
16eee-
16bb
16aa-
16ee-
16b
16a-
16e-
16B
16e-
16a-
=78
8b
8eee-
8eee-
8eee-
8eee
8eee-
=79
16g-
16ee-
16a
16ff
16b-
16gg-
16ff
16aa
16gg-
16bb-
16aa
16fff
=80
16bb-
16bbb-
16ggg-
16eee-
16bb-
16gg-
16ee-
16b-
16g-
16e-
16g-
16b-
=81
8ee-
8eee-
8eee-
8eee-
8eee
8eee-
=82
8r
8ff
8ff
8ff
8gg-
8ee-
=83
8r
8f
8f
8f
8g-
8cc
=84
2e-
4d
=85
4e-
8r
8bb-
8bb-
8bb-
=86
4bb
4.eee-
16r
16bb
=87
4bb
4.bb-
8aa
=88
4bb-
8aa-
8gg
4aa-
=89
4.gg
8b-
8b-
8b-
=90
4b
8ee-
8aa-
8ee-
8b
=91
4b
4.b-
8a
=92
4b-
8a-
8g
4a-
=93
4.g
8b-
8a-
8g
=94
4b-
8a-
8g
4a-
=95
4g
4ccc
4aa-
=96
4gg
4cc
4a-
=97
4g
4aa-
4gg
=98
4a-
4g
4r
=99
2.r
=100
2.r
=101
4e
16r
16f
16g
16a-
16b-
16cc
16dd
16ee
=102
4f
4ff
8r
16r
16ff
=103
4gg-
4gg-
8r
16r
16gg-
=104
4gg
4gg
8r
16r
16gg
=105
4aa-
8gg
8ee-
8dd
8cc
=106
4gg
4gg
8r
16r
16gg
=107
4ccc
4ccc
8r
16r
16ccc
=108
4bb
4bb
8r
16r
16ddd
=109
4eee-
4eee-
8r
16r
16eee-
=110
4.aaa-
24ggg
24fff
24eee-
24ddd-
24ccc
24bb-
24aa-
24gg
24ff
=111
24ee-
24dd-
24cc
24b-
24a-
24g
24f
24e-
24d-
24c
24B-
24A-
24G
24F
24E-
24D-
24C
24BB-
=112
2AA-
4r
=113
2.r
=114
4r
8r
16G
16g
16A-
16a-
16B-
16b-
=115
16c
16cc
16d
16dd
16e-
16ee-
16g
16gg
16a-
16aa-
16b-
16bb-
=116
16cc
16ccc
16dd
16ddd
16ee-
16eee-
16aa-
16aaa-
16bb-
16bbb-
16ccc
16cccc
=117
4ggg
16r
16fff
16eee-
16ddd
16ccc
16bb-
16aa-
16gg
=118
16ff
16ee-
16dd
16cc
16b
16a-
16g
16f
16e-
16d
16c
16B
=119
4.c
16d
16c
16B
16c
16B
16c
=120
4e-
4d
8r
16r
16d
=121
4e
16r
16dd-
16cc
16b-
16a-
16g
16f
16e
=122
4g
4f
8r
16r
16f
=123
4g
8f#
16g
16f#
16g
16f#
16g
16g-
=124
4a-
4g
8r
16r
16g
=125
4cc
8a-
8e-
8c
8ee-
=126
4b-
4b-
8r
16r
16g
=127
8a-
8cc
8b-
8a-
8g
8f
=128
4g-
4g
8r
16r
16bb-
=129
4ccc
8aa-
8ee-
8cc
8eee-
=130
4bb-
4bb-
8r
16r
16gg
=131
8aa-
8ccc
8bb-
8aa-
8gg
8ff
=132
8gg
8bb-
8aa-
8gg
8ff
8ee-
=133
8dd
8aa-
8gg
8ff
8ee-
8dd
=134
16ee-
16gg-
16ee-
16cc
16cc
16ee-
16cc
16a
16a
16cc
16a
16e-
=135
16b-
16dd
16b-
16f
16f
16b-
16f
16d
16d
16f
16d
16B-
=136
4b-
4b-
4r
=137
4r
8r
8a-
8g
8f
=138
4e-[
4e-]
4d
=139
8e-
8d
8e-
8f
4g
=140
2a-
4g
=141
8g
8f
8e-
8d
8c
8d
=142
4e-
4b-
4b-
=143
8b-
8b-
8b-
8b-
4b-
=144
4b-
4ee-
4ee-
=145
8ee-
8ee-
8ee-
8ee-
8ee-
8ee-
=146
4ee-
4.a-
8f
=147
8a-
8g-
8dd-
8dd-
8dd-
8dd-
=148
4dd-
4r
4b-
=149
2.b-[
=150
4b-]
4cc
4a-
=151
4.g
8aa-
8gg
8ff
=152
2ee-
4dd
=153
8ee-
8dd
8ee-
8ff
4gg
=154
2aa-
4gg
=155
8gg
8ff
8ee-
8dd
8cc
8dd
=156
2ee-
4dd
=157
8ee-
8dd
8ee-
8ff
4gg
=158
2bb-
4gg
=159
8bb-
8aa-
8gg
8ff
8ee-
8ff
=160
4gg
4.aa-
8ff
=161
8aa-
8gg-
8ff
8ee-
8dd-
8ee-
=162
4ff
2ff
=163
4ff
8gg
8aa-
8gg
8ff
=164
4gg
4ccc
4aa-
=165
4.gg
16a-
16b-
16g-
16b-
16f
16b-
=166
16e-
16b-
16g-
16f
16e-
16b-
16g-
16e-
16d
16b-
16f
16d
=167
16e-
16b-
16d
16b-
16e-
16b-
16f
16b-
16g-
16ee-
16b-
16g-
=168
16a-
16ee-
16b
16b-
16a-
16ee-
16b
16a-
16g-
16ee-
16b-
16g-
=169
16g-
16b-
16f
16b-
16e-
16b-
16d
16b-
16e-
16b-
16f
16dd-
=170
16g-
16dd-
16b-
16a-
16g-
16dd-
16b-
16g-
16f
16dd-
16a-
16f
=171
16g-
16dd-
16f
16dd-
16g-
16dd-
16a-
16dd-
16b-
16gg-
16dd-
16b-
=172
16b
16gg-
16ee-
16dd-
16b
16gg-
16ee-
16b
16b-
16gg-
16dd-
16b-
=173
16b-
16dd-
16a-
16dd-
16g-
16dd-
16f
16dd-
16g-
16dd-
16g
16ee-
=174
16a-
16ee-
16b-
16gg-
16b
16aa-
16ee-
16bb-
16ee-
16bb
16gg-
16eee-
=175
16aa-
16aaa-
16eee-
16bb
16aa-
16ee-
16b
16a-
16e-
16B
16e-
16a-
=176
8b
8eee-
8eee-
8eee-
8eee
8eee-
=177
16g-
16ee-
16a
16ff
16b-
16gg-
16ff
16aa
16gg-
16bb-
16aa
16fff
=178
16bb-
16bbb-
16ggg-
16eee-
16bb-
16gg-
16ee-
16b-
16g-
16e-
16g-
16b-
=179
8ee-
8eee-
8eee-
8eee-
8eee
8eee-
=180
8r
8ff
8ff
8ff
8gg-
8ee-
=181
8r
8f
8f
8f
8g-
8cc
=182
2e-
4d
=183
4e-
8r
8bb-
8bb-
8bb-
=184
4bb
4.eee-
16r
16bb
=185
4bb
4.bb-
8aa
=186
4bb-
8aa-
8gg
4aa-
=187
4.gg
8b-
8b-
8b-
=188
4b
8ee-
8aa-
8ee-
8b
=189
4b
4.b-
8a
=190
4b-
8a-
8g
4a-
=191
4.g
8b-
8a-
8g
=192
4b-
8a-
8g
4a-
=193
4g
4ccc
4aa-
=194
4gg
4cc
4a-
=195
4g
4aa-
4gg
=196
4a-
4g
4r
=197
4r
4r
8r
8B
=198
8c
8d
8e-
8g
8a-
8cc
=199
2dd-
8r
8cc
=200
8dd-
8a-
8b-
8f
8e-
8d-
=201
8c
8cc
4.ee-
8ff
=202
8gg-
16eee-
16ddd-
16ccc
16ggg-
16eee-
16ddd-
16ccc
16eee-
16ee-
16ff
=203
16gg-
16ccc
16ee-
16ff
16gg-
16ff
16ee-
16dd-
16cc
16ff
16ee-
16cc
=204
8dd
8dd
4.ff
8gg
=205
8aa-
16fff
16eee-
16ddd
16aaa-
16fff
16eee-
16ddd
16fff
16ff
16gg
=206
16aa-
16ddd
16ff
16gg
16aa-
16gg
16ff
16ee-
16dd
16gg
16ff
16dd
=207
8ee
8ccc
4.ddd-
8ff
=208
8ee
8ccc
4.ddd-
8ff
=209
8ee
8ccc
4.ddd-
8ff
=210
8gg
8ccc
4.ddd-
8aa-
=211
8bb-
8ggg-
4.ggg
8gg
=212
8gg
8gg-
8gg-
8ee
8ee
8dd
=213
2aa
8r
8a
=214
2a
8r
8d-
=215
16D
16d
16A
16G-
16D
16d
16A
16G-
16D
16d
16A
16G-
=216
16D
16d
16A
16G-
16D
16d
16A
16G-
16D
16d
16A
16G-
=217
16D
16d
16A
16G-
16D
16d
16A
16G-
16D
16d
16A
16G-
=218
16A
16d-
16A
16d
16E
16e
16A
16G
16E
16e
16A
16G
=219
16D
16d
16A
16G-
16D
16d
16A
16G-
16D
16d
16A
16G-
=220
16D
16d
16A
16G-
16D
16d
16A
16G-
16D
16d
16A
16G-
=221
16A
16d-
16A
16d
16E
16e
16A
16G
16E
16e
16A
16G
=222
16D
16d
16A
16G-
16D
16d
16A
16G-
16D
16d
16A
16G-
=223
16D
16d
16A
16G-
16D
16d
16A
16G-
16D
16d
16A
16G-
=224
16D
16d
16A
16G-
16D-
16d-
16B-
16G
16C
16c
16B-
16G
=225
16F
16f
16c
16A
16F
16f
16c
16A
16F
16f
16c
16A
=226
16F
16f
16c
16B-
16E
16e
16d-
16B-
16E-
16e-
16d-
16B-
=227
16A-
16a-
16e-
16c
16A-
16a-
16e-
16d-
16G
16g
16e-
16d-
=228
16A-
16a-
16e-
16c
16A-
16a-
16e-
16d-
16G
16g
16e-
16d-
=229
16c
16a-
16B
16g
16c
16a-
16e
16a
16d-
16b-
16c
16a
=230
16d-
16b-
16a-
16b-
16a-
16b-
16a-
16cc
16a-
16dd-
8g
=231
4cc
4r
4r
=232
16AA-
16A-
16E-
16C
16AA-
16A-
16E-
16C
16GG-
16G-
16E-
16C
=233
16GG-
16G-
16E-
16C
16FF
16F
16E-
16C
16GG-
16F
16E-
16C
=234
16BB-
16B-
16F
16D
16BB-
16B-
16F
16D
16BB-
16B-
16F
16D
=235
16BB-
16B-
16F
16E-
16AA
16A
16G-
16E-
16AA-
16A-
16G-
16E-
=236
16D-
16d-
16A-
16F
16D-
16d-
16A-
16G-
16C
16c
16A-
16G-
=237
16D-
16d-
16A-
16F
16D-
16d-
16A-
16G-
16C
16c
16A-
16G-
=238
16f
16dd-
16e
16cc
16f
16dd-
16a
16dd
16g-
16ee-
16f
16dd
=239
8r
16dd-
16ee-
16dd-
16ee-
16dd-
16ff
16dd-
16gg-
16cc
16gg-
=240
8ff
16ddd-
16ccc
16bb
16bb-
16aa
16aa-
16gg
16gg-
16ff
16gg-
=241
16gg
16gg-
16ff
16ee
16ee-
16dd-
16cc
16a
16g#
16a
16a-
16g-
=242
16f
16e
16f
16g-
16g
16f#
16g
16a-
16g
16b
16dd
16ff
=243
8ee
16ccc
16bb
16bb-
16aa
16aa-
16gg
16gg-
16ff
16ee
16ff
=244
16gg-
16ff
16ee
16ee-
16dd
16cc
16b
16a-
16g
16a-
16g
16f
=245
16e
16c
16B
16c
16d-
16d
16e-
16e
16f
16e
16f
16g-
=246
8g
16gg
16gg-
16ff
16ee
16ee-
16dd
16dd-
16cc
16b
16cc
=247
16dd-
16cc
16b
16b-
16a
16g
16g-
16e-
16d
16e-
16d
16c
=248
8B
16ggg
16ggg-
16fff
16eee
16eee-
16ddd
16ddd-
16ccc
16bb
16ccc
=249
16ddd-
16ccc
16bb
16bb-
16aa
16gg
16gg-
16ee-
16dd
16ee-
16dd
16cc
=250
16b
16b-
16a
16a-
16g
16g-
16f
16e
16e-
16d
16d-
16c
=251
16B
16c
16d-
16d
16e-
16e
16f
16g-
16g
16a-
16a
16b-
=252
16b
16cc
16dd-
16dd
16ee-
16ee
16ff
16gg-
16gg
16aa-
16aa
16bb-
=253
16bb
16bb-
16aa
16aa-
16gg
16gg-
16ff
16ee
24ee-
24dd
24dd-
24cc
24b
24b-
=254
16a
16b-
16b
16cc
16dd-
16dd
16ee-
16ee
16ff
16gg-
16gg
16aa-
=255
16aa
16aa-
16gg
16gg-
16ff
16ee
16ee-
16dd
16dd-
16cc
24b
24b-
24a
=256
16g#
16a
16b-
16b
16cc
16dd-
16dd
16ee-
16ee
16ff
24gg-
24gg
24aa-
=257
24gg
24fff
24eee-
24ddd
24ccc
24bb
24aa-
24gg
24ff
24ee-
24dd
24cc
24b
24a-
24g
24f
24e-
24d
=258
2.r
=259
2.r
=260
4e
16r
16f
16g
16a-
16b-
16cc
16dd
16ee
=261
4f
4ff
8r
16r
16ff
=262
4gg-
4gg-
8r
16r
16gg-
=263
4ff
4ff
8r
16r
16ff
=264
4aa-
4aa-
8r
16r
16aa-
=265
4gg
4gg
8r
16r
16gg
=266
4ccc
8gg
8ee-
8dd
8cc
=267
4gg
4gg
8r
16r
16gg
=268
4eee-
4eee-
8r
16r
16eee-
=269
4aaa-
32r
32bbb-
32cccc
32bbb-
32aaa-
32ggg
32fff
32eee-
24ddd-
24ccc
24bb-
24aa-
24gg
24ff
=270
24ee-
24dd-
24cc
24b-
24a-
24g
24f
24e-
24d-
24c
24B-
24A-
24G
24F
24E-
24D-
24C
24BB-
=271
2AA-
4r
=272
2.r
=273
4r
8r
16G
16g
16A-
16a-
16B-
16b-
=274
16c
16cc
16d
16dd
16e-
16ee-
16g
16gg
16a-
16aa-
16b-
16bb-
=275
16cc
16ccc
16dd
16ddd
16ee-
16eee-
16aa-
16aaa-
16bb-
16bbb-
16ccc
16cccc
=276
4dddd-
16r
16aaa-
16fff
16ddd-
16aa-
16ff
8dd-
=277
4cccc
16r
16aaa
16eee-
16ccc
16aa
16ee-
16cc
16cc
=278
4gg
4gg
8r
16r
16ff
=279
8ee-
8gg
8ff
8ee-
8dd
8cc
=280
4gg
4gg
8r
16r
16ff
=281
8ee-
8gg
8ff
8ee-
8dd
8cc
=282
8b
8ff
8ee-
8dd
8cc
8b
=283
16cc
16ee-
16cc
16a
16a
16cc
16a
16g-
16g-
16a
16g-
16c
=284
16g
16b
16g
16d
16d
16g
16d
16B
16B
16d
16B
16G
=285
4g
4g
4r
=286
4r
8r
8f
8e
8d
=287
4c[
4c]
4B
=288
8c
8B
8c
8d
4e
=289
2f
4e
=290
8e
8d
8c
8B
8A
8B
=291
4c
4g
4g
=292
8g
8g
8g
8g
4g
=293
4g
4cc
4cc
=294
8cc
8cc
8cc
8cc
8cc
8cc
=295
4cc
4.f
8d
=296
8f
8e-
8b-
8b-
8b-
8b-
=297
4b-
4r
4g
=298
2.g[
=299
4g]
4a
4f
=300
4.e
8ff
8ee
8dd
=301
2cc
4b
=302
8cc
8b
8cc
8dd
4ee
=303
2ff
4ee
=304
8ee
8dd
8cc
8b
8a
8b
=305
2cc
4b
=306
8cc
8b
8cc
8dd
4ee
=307
2gg
4ee
=308
8gg
8ff
8ee
8dd
8cc
8dd
=309
4ee
4.ff
8dd
=310
8ff
8ee-
8dd
8cc
8b-
8cc
=311
4dd
2dd
=312
4dd
8ee
8ff
8ee
8dd
=313
4ee
4aa
4ff
=314
4.ee
16ff
16gg
16ee-
16gg
16dd
16gg
=315
16cc
16gg
16ee-
16dd
16cc
16gg
16ee-
16cc
16b
16gg
16dd
16b
=316
16cc
16gg
16b
16gg
16cc
16gg
16dd
16gg
16ee-
16ccc
16gg
16ee-
=317
16ff
16ccc
16aa-
16gg
16ff
16ccc
16aa-
16ff
16ee-
16ccc
16gg
16ee-
=318
16ee-
16gg
16dd
16gg
16cc
16gg
16b
16gg
16cc
16gg
16dd
16bb-
=319
16ee-
16bb-
16gg
16ff
16ee-
16bb-
16gg
16ee-
16dd
16bb-
16ff
16dd
=320
16ee-
16bb-
16dd
16bb-
16ee-
16bb-
16ff
16bb-
16gg
16eee-
16bb-
16gg
=321
16aa-
16eee-
16ccc
16bb-
16aa-
16eee-
16ccc
16aa-
16gg
16eee-
16bb-
16gg
=322
16gg
16bb-
16ff
16bb-
16ee-
16bb-
16dd
16bb-
16ee-
16bb-
16ee
16ccc
=323
16ff
16ccc
16g
16ee
16a-
16ff
16cc
16gg
16cc
16aa-
16ee
16ccc
=324
16ff
16fff
16ccc
16aa-
16ff
16cc
16a-
16f
16c
16f
16a-
16cc
=325
8ff
8ccc
8ccc
8ccc
8ddd-
8ccc
=326
16e-
16cc
16g-
16dd
16g
16ee-
16dd
16gg-
16ee-
16gg
16gg-
16ddd
=327
16gg
16ggg
16eee-
16ccc
16gg
16ee-
16cc
16g
16e-
16c
16e-
16g
=328
8cc
8ccc
8ccc
8ccc
8ddd-
8ccc
=329
8r
8dd
8dd
8dd
8ee-
8cc
=330
8r
8d
8d
8d
8e-
8a
=331
2c
4B
=332
4c
8r
8gg
8gg
8gg
=333
4aa-
4.ccc
16r
16aa-
=334
4aa-
4.gg
8ff#
=335
4gg
8ff
8ee
4ff
=336
4.ee
8g
8g
8g
=337
4a-
8cc
8ff
8cc
8a-
=338
4a-
4.g
8f#
=339
4g
8f
8e
4f
=340
4.e
8g
8f
8e
=341
4g
8f
8e
4f
=342
4e
4aa
4ff
=343
4ee
4a
4f
=344
4e
4ff
4ee
=345
4f
4e
4r
=346
2.r
=347
16C
16c
16G
16E-
16C
16c
16G
16E-
16C
16c
16G
16E-
=348
16C
16c
16G
16E-
16C
16c
16G
16E-
16BB-
16B-
16G
16E
=349
16BB-
16B-
16G
16E
16C
16c
16G
16E
16C
16c
16B-
16E
=350
16C
16c
16A-
16F
16C
16c
16A-
16F
16C
16c
16A-
16F
=351
16D-
16d-
16A-
16F
16D-
16d-
16A-
16F
16D
16d
16A-
16F
=352
16D
16d
16A-
16F
16E-
16e-
16c
16G
16G
16g
16f
16B
=353
16CC
16C
16GG
16EE-
16CC
16C
16GG
16EE-
16BBB-
16BB-
16GG
16EE
=354
16BBB-
16BB-
16GG
16EE
16CC
16C
16GG
16EE
16CC
16C
16BB-
16EE
=355
16CC
16C
16AA-
16FF
16CC
16C
16AA-
16FF
16CC
16C
16AA-
16FF
=356
16DD-
16D-
16AA-
16FF
16DD-
16D-
16AA-
16FF
16DD
16D
16AA-
16FF
=357
16DD
16D
16AA-
16FF
16EE-
16E-
16C
16GG
16GG
16G
16F
16BB
=358
16CC
16C
16GG
16EE-
16CC
16BB
16FF
16DD
16CC
16BB
16FF
16DD
=359
16CC
16BB
16FF
16DD
16CC
16C
16GG
16EE-
16CC
16BB
16FF
16DD
=360
16CC
16BB
16FF
16DD
16CC
16BB
16FF
16DD
16CC
16C
16GG
16EE-
=361
16CC
16BB
16FF
16DD
16CC
16BB
16FF
16DD
16CC
16BB
16FF
16DD
=362
16CC
16GG
16FF
16DD
16CC
16GG
16FF
16DD
16CC
16GG
16FF
16DD
=363
16CC
16GG
16FF
16DD
16CC
16GG
16FF
16DD
16CC
16GG
16FF
16DD
=364
16CC
16GG
16FF
16DD
16CC
16GG
16FF
16DD
16CC
16GG
16FF
16DD
=365
4CC
4r
4a-
=366
4g
4r
4f
=367
4e-
4r
4d
=368
4c
4c
4c
=369
4c
4GG
4EE-
=370
2CC
4r
=371
2CC
4r
=372
2.CC
==
*-
